devices/16/network-wired-activated.svg

<svg xmlns="http://www.w3.org/2000/svg" viewBox="0 0 16 16">
  <defs id="defs3051">
    <style type="text/css" id="current-color-scheme">.ColorScheme-Text {color:#eff0f1;}</style>
  </defs>
    <path 
        style="fill:currentColor;fill-opacity:1;stroke:none" 
          d="m 7,2 v 1 h 5 c 0,0 1,0 1,1 0,1 0,4 0,5 0,1 -1,1 -1,1 H 7 v 2 1 H 6 C 5.4459904,13 5,12.55401 5,12 V 10 8 7 C 5,7 6,7 6,6 6,5 6,5 6,4 6,3 5,3 5,3 H 4 C 4,3 3,3 3,4 3,5 3,5 3,6 3,7 4,7 4,7 v 1 2 2 c 0,1.108 0.892,2 2,2 h 1 2 2 V 13 H 9 v -1 h 3 c 0,0 2,0 2,-2 C 14,8 14,6 14,4 14,2 12.052908,2 12.052908,2 Z M 4,5 H 5 V 6 H 4 Z M 2,8 v 4 H 3 V 10 8 Z"
          class="ColorScheme-Text"
        />
</svg>

<svg xmlns="http://www.w3.org/2000/svg" viewBox="0 0 16 16">
  <defs id="defs3051">
    <style type="text/css" id="current-color-scheme">
      .ColorScheme-Text {
        color:#eff0f1;
      }
      </style>
  </defs>
    <path 
        style="fill:currentColor;fill-opacity:1;stroke:none" 
          d="M 7 2 L 7 3 L 13 3 L 13 10 L 7 10 L 7 12 L 7 13 L 6 13 C 5.4459904 13 5 12.55401 5 12 L 5 10 L 5 8 L 5 7 L 6 7 L 6 3 L 3 3 L 3 7 L 4 7 L 4 8 L 4 10 L 4 12 C 4 13.108 4.892 14 6 14 L 7 14 L 9 14 L 11 14 L 11 13 L 9 13 L 9 12 L 14 12 L 14 11 L 14 10 L 14 2 L 7 2 z M 4 5 L 5 5 L 5 6 L 4 6 L 4 5 z M 2 8 L 2 12 L 3 12 L 3 10 L 3 8 L 2 8 z " 
          class="ColorScheme-Text"
        />
</svg>
